X:337
T: "Das Glueck im Schlafe"
N: Z1017
O: Europa, Mitteleuropa, Deutschland, Niederrhein
R: Romanze, Ballade
M: 6/8
L: 1/16
K: D
D2 | A4A2A4A2 | B4c2d4
B2 | e4d2c2B2A2 | B6A2z2
A2 | d4d2F4B2 | A3BAGF4
D2 | E4FGA3GF2 | E6D4

